images/5461357.svg

<?xml version="1.0" encoding="UTF-8"?>
<svg xmlns="http://www.w3.org/2000/svg" xmlns:xlink="http://www.w3.org/1999/xlink" width="300pt" height="300pt" viewBox="0 0 300 300" version="1.1">
<defs>
<g>
<symbol overflow="visible" id="glyph0-0">
<path style="stroke:none;" d="M 0.453125 1.59375 L 0.453125 -6.34375 L 4.953125 -6.34375 L 4.953125 1.59375 Z M 0.953125 1.09375 L 4.453125 1.09375 L 4.453125 -5.84375 L 0.953125 -5.84375 Z M 0.953125 1.09375 "/>
</symbol>
<symbol overflow="visible" id="glyph0-1">
<path style="stroke:none;" d="M 3.546875 -5.953125 C 2.898438 -5.953125 2.382812 -5.710938 2 -5.234375 C 1.625 -4.753906 1.4375 -4.101562 1.4375 -3.28125 C 1.4375 -2.445312 1.625 -1.789062 2 -1.3125 C 2.382812 -0.832031 2.898438 -0.59375 3.546875 -0.59375 C 4.191406 -0.59375 4.703125 -0.832031 5.078125 -1.3125 C 5.453125 -1.789062 5.640625 -2.445312 5.640625 -3.28125 C 5.640625 -4.101562 5.453125 -4.753906 5.078125 -5.234375 C 4.703125 -5.710938 4.191406 -5.953125 3.546875 -5.953125 Z M 3.546875 -6.6875 C 4.460938 -6.6875 5.195312 -6.375 5.75 -5.75 C 6.300781 -5.132812 6.578125 -4.3125 6.578125 -3.28125 C 6.578125 -2.238281 6.300781 -1.410156 5.75 -0.796875 C 5.195312 -0.179688 4.460938 0.125 3.546875 0.125 C 2.617188 0.125 1.878906 -0.179688 1.328125 -0.796875 C 0.773438 -1.410156 0.5 -2.238281 0.5 -3.28125 C 0.5 -4.3125 0.773438 -5.132812 1.328125 -5.75 C 1.878906 -6.375 2.617188 -6.6875 3.546875 -6.6875 Z M 3.546875 -6.6875 "/>
</symbol>
<symbol overflow="visible" id="glyph0-2">
<path style="stroke:none;" d="M 0.890625 -6.5625 L 2.078125 -6.5625 L 4.984375 -1.078125 L 4.984375 -6.5625 L 5.84375 -6.5625 L 5.84375 0 L 4.65625 0 L 1.75 -5.484375 L 1.75 0 L 0.890625 0 Z M 0.890625 -6.5625 "/>
</symbol>
<symbol overflow="visible" id="glyph0-3">
<path style="stroke:none;" d="M 0.890625 -6.5625 L 1.765625 -6.5625 L 1.765625 -3.875 L 5 -3.875 L 5 -6.5625 L 5.890625 -6.5625 L 5.890625 0 L 5 0 L 5 -3.125 L 1.765625 -3.125 L 1.765625 0 L 0.890625 0 Z M 0.890625 -6.5625 "/>
</symbol>
</g>
</defs>
<g id="surface32997">
<rect x="0" y="0" width="300" height="300" style="fill:rgb(100%,100%,100%);fill-opacity:1;stroke:none;"/>
<path style="fill:none;stroke-width:1.2;stroke-linecap:butt;stroke-linejoin:miter;stroke:rgb(0%,0%,0%);stroke-opacity:1;stroke-miterlimit:10;" d="M 236.105469 216.664062 L 233.25 206.746094 "/>
<path style="fill:none;stroke-width:1.2;stroke-linecap:butt;stroke-linejoin:miter;stroke:rgb(100%,0%,0%);stroke-opacity:1;stroke-miterlimit:10;" d="M 233.25 206.746094 L 230.394531 196.828125 "/>
<path style="fill:none;stroke-width:1.2;stroke-linecap:butt;stroke-linejoin:miter;stroke:rgb(100%,0%,0%);stroke-opacity:1;stroke-miterlimit:10;" d="M 230.394531 196.828125 L 237.558594 189.398438 "/>
<path style="fill:none;stroke-width:1.2;stroke-linecap:butt;stroke-linejoin:miter;stroke:rgb(0%,0%,0%);stroke-opacity:1;stroke-miterlimit:10;" d="M 237.558594 189.398438 L 244.71875 181.96875 "/>
<path style=" stroke:none;fill-rule:nonzero;fill:rgb(100%,100%,100%);fill-opacity:1;" d="M 226.394531 191.328125 L 234.394531 191.328125 L 234.394531 202.328125 L 226.394531 202.328125 Z M 226.394531 191.328125 "/>
<g style="fill:rgb(100%,0%,0%);fill-opacity:1;">
  <use xlink:href="#glyph0-1" x="226.394531" y="199.991211"/>
</g>
<path style="fill:none;stroke-width:1.2;stroke-linecap:butt;stroke-linejoin:miter;stroke:rgb(0%,0%,0%);stroke-opacity:1;stroke-miterlimit:10;" d="M 244.132812 184.324219 L 254.148438 186.8125 "/>
<path style="fill:none;stroke-width:1.2;stroke-linecap:butt;stroke-linejoin:miter;stroke:rgb(100%,0%,0%);stroke-opacity:1;stroke-miterlimit:10;" d="M 254.148438 186.8125 L 264.164062 189.296875 "/>
<path style="fill:none;stroke-width:1.2;stroke-linecap:butt;stroke-linejoin:miter;stroke:rgb(0%,0%,0%);stroke-opacity:1;stroke-miterlimit:10;" d="M 245.304688 179.613281 L 255.320312 182.097656 "/>
<path style="fill:none;stroke-width:1.2;stroke-linecap:butt;stroke-linejoin:miter;stroke:rgb(100%,0%,0%);stroke-opacity:1;stroke-miterlimit:10;" d="M 255.320312 182.097656 L 265.335938 184.585938 "/>
<path style=" stroke:none;fill-rule:nonzero;fill:rgb(0%,0%,0%);fill-opacity:1;" d="M 239.007812 162.132812 L 241.21875 182.976562 L 248.21875 180.960938 Z M 239.007812 162.132812 "/>
<path style=" stroke:none;fill-rule:nonzero;fill:rgb(100%,100%,100%);fill-opacity:1;" d="M 260.75 181.441406 L 268.75 181.441406 L 268.75 192.441406 L 260.75 192.441406 Z M 260.75 181.441406 "/>
<g style="fill:rgb(100%,0%,0%);fill-opacity:1;">
  <use xlink:href="#glyph0-1" x="260.75" y="190.104492"/>
</g>
<path style="fill:none;stroke-width:1.2;stroke-linecap:butt;stroke-linejoin:miter;stroke:rgb(0%,0%,0%);stroke-opacity:1;stroke-miterlimit:10;" d="M 239.007812 162.132812 L 253.332031 147.273438 "/>
<path style="fill:none;stroke-width:1.2;stroke-linecap:butt;stroke-linejoin:miter;stroke:rgb(0%,0%,0%);stroke-opacity:1;stroke-miterlimit:10;" d="M 239.007812 162.132812 L 228.992188 159.648438 "/>
<path style="fill:none;stroke-width:1.2;stroke-linecap:butt;stroke-linejoin:miter;stroke:rgb(0%,0%,100%);stroke-opacity:1;stroke-miterlimit:10;" d="M 228.992188 159.648438 L 218.976562 157.160156 "/>
<path style="fill:none;stroke-width:1.2;stroke-linecap:butt;stroke-linejoin:miter;stroke:rgb(0%,0%,0%);stroke-opacity:1;stroke-miterlimit:10;" d="M 253.332031 147.273438 L 247.621094 127.4375 "/>
<path style="fill:none;stroke-width:1.2;stroke-linecap:butt;stroke-linejoin:miter;stroke:rgb(0%,0%,0%);stroke-opacity:1;stroke-miterlimit:10;" d="M 247.621094 127.4375 L 261.945312 112.578125 "/>
<path style="fill:none;stroke-width:1.2;stroke-linecap:butt;stroke-linejoin:miter;stroke:rgb(0%,0%,0%);stroke-opacity:1;stroke-miterlimit:10;" d="M 245.558594 122.582031 L 257.015625 110.691406 "/>
<path style="fill:none;stroke-width:1.2;stroke-linecap:butt;stroke-linejoin:miter;stroke:rgb(0%,0%,0%);stroke-opacity:1;stroke-miterlimit:10;" d="M 227.589844 122.464844 L 247.621094 127.4375 "/>
<path style="fill:none;stroke-width:1.2;stroke-linecap:butt;stroke-linejoin:miter;stroke:rgb(0%,0%,0%);stroke-opacity:1;stroke-miterlimit:10;" d="M 261.945312 112.578125 L 256.238281 92.742188 "/>
<path style="fill:none;stroke-width:1.2;stroke-linecap:butt;stroke-linejoin:miter;stroke:rgb(0%,0%,0%);stroke-opacity:1;stroke-miterlimit:10;" d="M 256.238281 92.742188 L 236.203125 87.769531 "/>
<path style="fill:none;stroke-width:1.2;stroke-linecap:butt;stroke-linejoin:miter;stroke:rgb(0%,0%,0%);stroke-opacity:1;stroke-miterlimit:10;" d="M 253.0625 96.957031 L 237.039062 92.980469 "/>
<path style="fill:none;stroke-width:1.2;stroke-linecap:butt;stroke-linejoin:miter;stroke:rgb(0%,0%,0%);stroke-opacity:1;stroke-miterlimit:10;" d="M 236.203125 87.769531 L 221.882812 102.632812 "/>
<path style="fill:none;stroke-width:1.2;stroke-linecap:butt;stroke-linejoin:miter;stroke:rgb(0%,0%,0%);stroke-opacity:1;stroke-miterlimit:10;" d="M 221.882812 102.632812 L 227.589844 122.464844 "/>
<path style="fill:none;stroke-width:1.2;stroke-linecap:butt;stroke-linejoin:miter;stroke:rgb(0%,0%,0%);stroke-opacity:1;stroke-miterlimit:10;" d="M 227.121094 103.269531 L 231.6875 119.140625 "/>
<path style="fill:none;stroke-width:1.2;stroke-linecap:butt;stroke-linejoin:miter;stroke:rgb(0%,0%,100%);stroke-opacity:1;stroke-miterlimit:10;" d="M 218.976562 157.160156 L 211.816406 164.59375 "/>
<path style="fill:none;stroke-width:1.2;stroke-linecap:butt;stroke-linejoin:miter;stroke:rgb(0%,0%,0%);stroke-opacity:1;stroke-miterlimit:10;" d="M 211.816406 164.59375 L 204.65625 172.023438 "/>
<path style=" stroke:none;fill-rule:nonzero;fill:rgb(100%,100%,100%);fill-opacity:1;" d="M 211.976562 151.660156 L 225.976562 151.660156 L 225.976562 162.660156 L 211.976562 162.660156 Z M 211.976562 151.660156 "/>
<g style="fill:rgb(0%,0%,100%);fill-opacity:1;">
  <use xlink:href="#glyph0-2" x="211.976562" y="160.323242"/>
  <use xlink:href="#glyph0-3" x="218.954102" y="160.323242"/>
</g>
<path style="fill:none;stroke-width:1.2;stroke-linecap:butt;stroke-linejoin:miter;stroke:rgb(0%,0%,0%);stroke-opacity:1;stroke-miterlimit:10;" d="M 202.320312 172.695312 L 205.175781 182.613281 "/>
<path style="fill:none;stroke-width:1.2;stroke-linecap:butt;stroke-linejoin:miter;stroke:rgb(100%,0%,0%);stroke-opacity:1;stroke-miterlimit:10;" d="M 205.175781 182.613281 L 208.03125 192.527344 "/>
<path style="fill:none;stroke-width:1.2;stroke-linecap:butt;stroke-linejoin:miter;stroke:rgb(0%,0%,0%);stroke-opacity:1;stroke-miterlimit:10;" d="M 206.988281 171.351562 L 209.84375 181.269531 "/>
<path style="fill:none;stroke-width:1.2;stroke-linecap:butt;stroke-linejoin:miter;stroke:rgb(100%,0%,0%);stroke-opacity:1;stroke-miterlimit:10;" d="M 209.84375 181.269531 L 212.699219 191.183594 "/>
<path style=" stroke:none;fill-rule:nonzero;fill:rgb(0%,0%,0%);fill-opacity:1;" d="M 184.625 167.050781 L 203.777344 175.558594 L 205.53125 168.488281 Z M 184.625 167.050781 "/>
<path style=" stroke:none;fill-rule:nonzero;fill:rgb(100%,100%,100%);fill-opacity:1;" d="M 206.363281 186.355469 L 214.363281 186.355469 L 214.363281 197.355469 L 206.363281 197.355469 Z M 206.363281 186.355469 "/>
<g style="fill:rgb(100%,0%,0%);fill-opacity:1;">
  <use xlink:href="#glyph0-1" x="206.363281" y="195.018555"/>
</g>
<path style="fill:none;stroke-width:1.2;stroke-linecap:butt;stroke-linejoin:miter;stroke:rgb(0%,0%,0%);stroke-opacity:1;stroke-miterlimit:10;" d="M 184.625 167.050781 L 164.789062 172.757812 "/>
<path style="fill:none;stroke-width:1.2;stroke-linecap:butt;stroke-linejoin:miter;stroke:rgb(0%,0%,0%);stroke-opacity:1;stroke-miterlimit:10;" d="M 169.761719 152.726562 L 184.625 167.050781 "/>
<path style="fill:none;stroke-width:1;stroke-linecap:butt;stroke-linejoin:miter;stroke:rgb(0%,0%,0%);stroke-opacity:1;stroke-miterlimit:10;" d="M 169.761719 152.726562 L 169.761719 152.726562 M 168.542969 155.46875 L 169.554688 155.71875 M 167.328125 158.210938 L 169.351562 158.714844 M 166.109375 160.953125 L 169.144531 161.707031 M 164.890625 163.695312 L 168.9375 164.699219 M 163.671875 166.4375 L 168.734375 167.691406 M 162.457031 169.175781 L 168.527344 170.683594 M 161.253906 171.882812 L 168.324219 173.636719 "/>
<path style="fill:none;stroke-width:1.2;stroke-linecap:butt;stroke-linejoin:miter;stroke:rgb(0%,0%,0%);stroke-opacity:1;stroke-miterlimit:10;" d="M 169.761719 152.726562 L 164.054688 132.894531 "/>
<path style="fill:none;stroke-width:1;stroke-linecap:butt;stroke-linejoin:miter;stroke:rgb(0%,0%,0%);stroke-opacity:1;stroke-miterlimit:10;" d="M 164.054688 132.894531 L 164.054688 132.894531 M 166.480469 131.128906 L 165.726562 130.402344 M 168.902344 129.363281 L 167.402344 127.914062 M 171.328125 127.597656 L 169.078125 125.425781 M 173.753906 125.832031 L 170.753906 122.9375 M 176.179688 124.066406 L 172.425781 120.449219 M 178.605469 122.300781 L 174.101562 117.957031 M 181 120.558594 L 175.753906 115.503906 "/>
<path style="fill:none;stroke-width:1.2;stroke-linecap:butt;stroke-linejoin:miter;stroke:rgb(0%,0%,0%);stroke-opacity:1;stroke-miterlimit:10;" d="M 164.054688 132.894531 L 154.039062 130.40625 "/>
<path style="fill:none;stroke-width:1.2;stroke-linecap:butt;stroke-linejoin:miter;stroke:rgb(0%,0%,100%);stroke-opacity:1;stroke-miterlimit:10;" d="M 154.039062 130.40625 L 144.023438 127.917969 "/>
<path style="fill:none;stroke-width:1.2;stroke-linecap:butt;stroke-linejoin:miter;stroke:rgb(0%,0%,0%);stroke-opacity:1;stroke-miterlimit:10;" d="M 178.375 118.03125 L 198.40625 123.003906 "/>
<path style="fill:none;stroke-width:1.2;stroke-linecap:butt;stroke-linejoin:miter;stroke:rgb(0%,0%,0%);stroke-opacity:1;stroke-miterlimit:10;" d="M 181.550781 113.816406 L 197.574219 117.792969 "/>
<path style="fill:none;stroke-width:1.2;stroke-linecap:butt;stroke-linejoin:miter;stroke:rgb(0%,0%,0%);stroke-opacity:1;stroke-miterlimit:10;" d="M 172.667969 98.195312 L 178.375 118.03125 "/>
<path style="fill:none;stroke-width:1.2;stroke-linecap:butt;stroke-linejoin:miter;stroke:rgb(0%,0%,0%);stroke-opacity:1;stroke-miterlimit:10;" d="M 198.40625 123.003906 L 212.730469 108.144531 "/>
<path style="fill:none;stroke-width:1.2;stroke-linecap:butt;stroke-linejoin:miter;stroke:rgb(0%,0%,0%);stroke-opacity:1;stroke-miterlimit:10;" d="M 212.730469 108.144531 L 207.019531 88.308594 "/>
<path style="fill:none;stroke-width:1.2;stroke-linecap:butt;stroke-linejoin:miter;stroke:rgb(0%,0%,0%);stroke-opacity:1;stroke-miterlimit:10;" d="M 207.492188 107.503906 L 202.925781 91.636719 "/>
<path style="fill:none;stroke-width:1.2;stroke-linecap:butt;stroke-linejoin:miter;stroke:rgb(0%,0%,0%);stroke-opacity:1;stroke-miterlimit:10;" d="M 207.019531 88.308594 L 186.988281 83.335938 "/>
<path style="fill:none;stroke-width:1.2;stroke-linecap:butt;stroke-linejoin:miter;stroke:rgb(0%,0%,0%);stroke-opacity:1;stroke-miterlimit:10;" d="M 186.988281 83.335938 L 172.667969 98.195312 "/>
<path style="fill:none;stroke-width:1.2;stroke-linecap:butt;stroke-linejoin:miter;stroke:rgb(0%,0%,0%);stroke-opacity:1;stroke-miterlimit:10;" d="M 189.054688 88.191406 L 177.59375 100.082031 "/>
<path style="fill:none;stroke-width:1.2;stroke-linecap:butt;stroke-linejoin:miter;stroke:rgb(0%,0%,100%);stroke-opacity:1;stroke-miterlimit:10;" d="M 144.023438 127.917969 L 136.859375 135.351562 "/>
<path style="fill:none;stroke-width:1.2;stroke-linecap:butt;stroke-linejoin:miter;stroke:rgb(0%,0%,0%);stroke-opacity:1;stroke-miterlimit:10;" d="M 136.859375 135.351562 L 129.699219 142.78125 "/>
<path style=" stroke:none;fill-rule:nonzero;fill:rgb(100%,100%,100%);fill-opacity:1;" d="M 137.023438 122.417969 L 151.023438 122.417969 L 151.023438 133.417969 L 137.023438 133.417969 Z M 137.023438 122.417969 "/>
<g style="fill:rgb(0%,0%,100%);fill-opacity:1;">
  <use xlink:href="#glyph0-2" x="137.023438" y="131.081055"/>
  <use xlink:href="#glyph0-3" x="144.000977" y="131.081055"/>
</g>
<path style="fill:none;stroke-width:1.2;stroke-linecap:butt;stroke-linejoin:miter;stroke:rgb(0%,0%,0%);stroke-opacity:1;stroke-miterlimit:10;" d="M 127.367188 143.453125 L 130.21875 153.371094 "/>
<path style="fill:none;stroke-width:1.2;stroke-linecap:butt;stroke-linejoin:miter;stroke:rgb(100%,0%,0%);stroke-opacity:1;stroke-miterlimit:10;" d="M 130.21875 153.371094 L 133.074219 163.285156 "/>
<path style="fill:none;stroke-width:1.2;stroke-linecap:butt;stroke-linejoin:miter;stroke:rgb(0%,0%,0%);stroke-opacity:1;stroke-miterlimit:10;" d="M 132.03125 142.109375 L 134.886719 152.027344 "/>
<path style="fill:none;stroke-width:1.2;stroke-linecap:butt;stroke-linejoin:miter;stroke:rgb(100%,0%,0%);stroke-opacity:1;stroke-miterlimit:10;" d="M 134.886719 152.027344 L 137.742188 161.945312 "/>
<path style="fill:none;stroke-width:1.2;stroke-linecap:butt;stroke-linejoin:miter;stroke:rgb(0%,0%,0%);stroke-opacity:1;stroke-miterlimit:10;" d="M 129.699219 142.78125 L 119.683594 140.292969 "/>
<path style="fill:none;stroke-width:1.2;stroke-linecap:butt;stroke-linejoin:miter;stroke:rgb(100%,0%,0%);stroke-opacity:1;stroke-miterlimit:10;" d="M 119.683594 140.292969 L 109.667969 137.808594 "/>
<path style=" stroke:none;fill-rule:nonzero;fill:rgb(100%,100%,100%);fill-opacity:1;" d="M 131.40625 157.117188 L 139.40625 157.117188 L 139.40625 168.117188 L 131.40625 168.117188 Z M 131.40625 157.117188 "/>
<g style="fill:rgb(100%,0%,0%);fill-opacity:1;">
  <use xlink:href="#glyph0-1" x="131.40625" y="165.780273"/>
</g>
<path style="fill:none;stroke-width:1.2;stroke-linecap:butt;stroke-linejoin:miter;stroke:rgb(100%,0%,0%);stroke-opacity:1;stroke-miterlimit:10;" d="M 109.667969 137.808594 L 102.507812 145.238281 "/>
<path style="fill:none;stroke-width:1.2;stroke-linecap:butt;stroke-linejoin:miter;stroke:rgb(0%,0%,0%);stroke-opacity:1;stroke-miterlimit:10;" d="M 102.507812 145.238281 L 95.34375 152.667969 "/>
<path style=" stroke:none;fill-rule:nonzero;fill:rgb(100%,100%,100%);fill-opacity:1;" d="M 105.667969 132.308594 L 113.667969 132.308594 L 113.667969 143.308594 L 105.667969 143.308594 Z M 105.667969 132.308594 "/>
<g style="fill:rgb(100%,0%,0%);fill-opacity:1;">
  <use xlink:href="#glyph0-1" x="105.667969" y="140.97168"/>
</g>
<path style="fill:none;stroke-width:1.2;stroke-linecap:butt;stroke-linejoin:miter;stroke:rgb(0%,0%,0%);stroke-opacity:1;stroke-miterlimit:10;" d="M 95.34375 152.667969 L 75.3125 147.695312 "/>
<path style="fill:none;stroke-width:1.2;stroke-linecap:butt;stroke-linejoin:miter;stroke:rgb(0%,0%,0%);stroke-opacity:1;stroke-miterlimit:10;" d="M 75.3125 147.695312 L 69.605469 127.863281 "/>
<path style="fill:none;stroke-width:1.2;stroke-linecap:butt;stroke-linejoin:miter;stroke:rgb(0%,0%,0%);stroke-opacity:1;stroke-miterlimit:10;" d="M 70.074219 147.054688 L 65.507812 131.1875 "/>
<path style="fill:none;stroke-width:1.2;stroke-linecap:butt;stroke-linejoin:miter;stroke:rgb(0%,0%,0%);stroke-opacity:1;stroke-miterlimit:10;" d="M 60.992188 162.558594 L 75.3125 147.695312 "/>
<path style="fill:none;stroke-width:1.2;stroke-linecap:butt;stroke-linejoin:miter;stroke:rgb(0%,0%,0%);stroke-opacity:1;stroke-miterlimit:10;" d="M 69.605469 127.863281 L 49.574219 122.890625 "/>
<path style="fill:none;stroke-width:1.2;stroke-linecap:butt;stroke-linejoin:miter;stroke:rgb(0%,0%,0%);stroke-opacity:1;stroke-miterlimit:10;" d="M 49.574219 122.890625 L 35.25 137.75 "/>
<path style="fill:none;stroke-width:1.2;stroke-linecap:butt;stroke-linejoin:miter;stroke:rgb(0%,0%,0%);stroke-opacity:1;stroke-miterlimit:10;" d="M 51.636719 127.746094 L 40.179688 139.632812 "/>
<path style="fill:none;stroke-width:1.2;stroke-linecap:butt;stroke-linejoin:miter;stroke:rgb(0%,0%,0%);stroke-opacity:1;stroke-miterlimit:10;" d="M 35.25 137.75 L 40.960938 157.585938 "/>
<path style="fill:none;stroke-width:1.2;stroke-linecap:butt;stroke-linejoin:miter;stroke:rgb(0%,0%,0%);stroke-opacity:1;stroke-miterlimit:10;" d="M 40.960938 157.585938 L 60.992188 162.558594 "/>
<path style="fill:none;stroke-width:1.2;stroke-linecap:butt;stroke-linejoin:miter;stroke:rgb(0%,0%,0%);stroke-opacity:1;stroke-miterlimit:10;" d="M 44.132812 153.367188 L 60.15625 157.347656 "/>
</g>
</svg>

<svg xmlns="http://www.w3.org/2000/svg" xmlns:xlink="http://www.w3.org/1999/xlink" width="300pt" height="300pt" viewBox="0 0 300 300"><defs><symbol overflow="visible"><path d="M.453 1.594v-7.938h4.5v7.938zm.5-.5h3.5v-6.938h-3.5zm0 0"/></symbol><symbol overflow="visible" id="a"><path d="M3.547-5.953c-.65 0-1.164.242-1.547.72-.375.48-.563 1.13-.563 1.952 0 .835.188 1.49.563 1.967.383.48.898.72 1.547.72.644 0 1.156-.24 1.53-.72.376-.476.564-1.132.564-1.968 0-.822-.187-1.474-.562-1.954-.375-.477-.887-.72-1.53-.72zm0-.734c.914 0 1.648.312 2.203.937.55.617.828 1.438.828 2.47 0 1.042-.277 1.87-.828 2.483-.555.617-1.29.922-2.203.922-.93 0-1.668-.305-2.22-.922C.774-1.41.5-2.237.5-3.28c0-1.033.273-1.853.828-2.47.55-.625 1.29-.938 2.22-.938zm0 0"/></symbol><symbol overflow="visible" id="b"><path d="M.89-6.563H2.08l2.906 5.485v-5.484h.86V0H4.656L1.75-5.484V0H.89zm0 0"/></symbol><symbol overflow="visible" id="c"><path d="M.89-6.563h.876v2.688H5v-2.688h.89V0H5v-3.125H1.766V0H.89zm0 0"/></symbol></defs><g><path fill="#fff" d="M0 0h300v300H0z"/><path d="M236.105 216.664l-2.855-9.918" stroke-width="1.2" stroke="#000" stroke-miterlimit="10" fill="none"/><path d="M233.25 206.746l-2.855-9.918M230.395 196.828l7.164-7.43" stroke-width="1.2" stroke="#f00" stroke-miterlimit="10" fill="none"/><path d="M237.56 189.398l7.16-7.43" stroke-width="1.2" stroke="#000" stroke-miterlimit="10" fill="none"/><path d="M226.395 191.328h8v11h-8zm0 0" fill="#fff"/><use xlink:href="#a" x="226.395" y="199.991" fill="#f00"/><path d="M244.133 184.324l10.015 2.488" stroke-width="1.2" stroke="#000" stroke-miterlimit="10" fill="none"/><path d="M254.148 186.813l10.016 2.484" stroke-width="1.2" stroke="#f00" stroke-miterlimit="10" fill="none"/><path d="M245.305 179.613l10.015 2.485" stroke-width="1.2" stroke="#000" stroke-miterlimit="10" fill="none"/><path d="M255.32 182.098l10.016 2.488" stroke-width="1.2" stroke="#f00" stroke-miterlimit="10" fill="none"/><path d="M239.008 162.133l2.21 20.844 7-2.016zm0 0"/><path d="M260.75 181.44h8v11h-8zm0 0" fill="#fff"/><use xlink:href="#a" x="260.75" y="190.104" fill="#f00"/><path d="M239.008 162.133l14.324-14.86M239.008 162.133l-10.016-2.485" stroke-width="1.2" stroke="#000" stroke-miterlimit="10" fill="none"/><path d="M228.992 159.648l-10.015-2.488" stroke-width="1.2" stroke="#00f" stroke-miterlimit="10" fill="none"/><path d="M253.332 147.273l-5.71-19.835M247.62 127.438l14.325-14.86M245.56 122.582l11.456-11.89M227.59 122.465l20.03 4.972M261.945 112.578l-5.707-19.836M256.238 92.742l-20.035-4.972M253.063 96.957L237.04 92.98M236.203 87.77l-14.32 14.863M221.883 102.633l5.707 19.832M227.12 103.27l4.567 15.87" stroke-width="1.2" stroke="#000" stroke-miterlimit="10" fill="none"/><path d="M218.977 157.16l-7.16 7.434" stroke-width="1.2" stroke="#00f" stroke-miterlimit="10" fill="none"/><path d="M211.816 164.594l-7.16 7.43" stroke-width="1.2" stroke="#000" stroke-miterlimit="10" fill="none"/><path d="M211.977 151.66h14v11h-14zm0 0" fill="#fff"/><g fill="#00f"><use xlink:href="#b" x="211.977" y="160.323"/><use xlink:href="#c" x="218.954" y="160.323"/></g><path d="M202.32 172.695l2.856 9.918" stroke-width="1.2" stroke="#000" stroke-miterlimit="10" fill="none"/><path d="M205.176 182.613l2.855 9.914" stroke-width="1.2" stroke="#f00" stroke-miterlimit="10" fill="none"/><path d="M206.988 171.352l2.856 9.918" stroke-width="1.2" stroke="#000" stroke-miterlimit="10" fill="none"/><path d="M209.844 181.27l2.855 9.914" stroke-width="1.2" stroke="#f00" stroke-miterlimit="10" fill="none"/><path d="M184.625 167.05l19.152 8.51 1.754-7.072zm0 0"/><path d="M206.363 186.355h8v11h-8zm0 0" fill="#fff"/><use xlink:href="#a" x="206.363" y="195.019" fill="#f00"/><path d="M184.625 167.05l-19.836 5.708M169.762 152.727l14.863 14.324" stroke-width="1.2" stroke="#000" stroke-miterlimit="10" fill="none"/><path d="M169.762 152.727m-1.22 2.742l1.013.25m-2.227 2.49l2.024.505m-3.243 2.238l3.035.754m-4.254 1.988l4.048 1.004m-5.266 1.738l5.062 1.253m-6.277 1.486l6.07 1.508m-7.273 1.2l7.07 1.753" stroke="#000" stroke-miterlimit="10" fill="none"/><path d="M169.762 152.727l-5.707-19.832" stroke-width="1.2" stroke="#000" stroke-miterlimit="10" fill="none"/><path d="M164.055 132.895m2.425-1.766l-.753-.728m3.175-1.04l-1.5-1.448m3.926-.316l-2.25-2.172m4.676.406l-3-2.894m5.426 1.128l-3.754-3.617m6.18 1.85l-4.504-4.343M181 120.56l-5.246-5.056" stroke="#000" stroke-miterlimit="10" fill="none"/><path d="M164.055 132.895l-10.016-2.49" stroke-width="1.2" stroke="#000" stroke-miterlimit="10" fill="none"/><path d="M154.04 130.406l-10.017-2.488" stroke-width="1.2" stroke="#00f" stroke-miterlimit="10" fill="none"/><path d="M178.375 118.03l20.03 4.974M181.55 113.816l16.024 3.977M172.668 98.195l5.707 19.836M198.406 123.004l14.324-14.86M212.73 108.145l-5.71-19.836M207.492 107.504l-4.566-15.867M207.02 88.31l-20.032-4.974M186.988 83.336l-14.32 14.86M189.055 88.19l-11.46 11.892" stroke-width="1.2" stroke="#000" stroke-miterlimit="10" fill="none"/><path d="M144.023 127.918l-7.164 7.434" stroke-width="1.2" stroke="#00f" stroke-miterlimit="10" fill="none"/><path d="M136.86 135.352l-7.16 7.43" stroke-width="1.2" stroke="#000" stroke-miterlimit="10" fill="none"/><path d="M137.023 122.418h14v11h-14zm0 0" fill="#fff"/><g fill="#00f"><use xlink:href="#b" x="137.023" y="131.081"/><use xlink:href="#c" x="144.001" y="131.081"/></g><path d="M127.367 143.453l2.852 9.918" stroke-width="1.2" stroke="#000" stroke-miterlimit="10" fill="none"/><path d="M130.22 153.37l2.854 9.915" stroke-width="1.2" stroke="#f00" stroke-miterlimit="10" fill="none"/><path d="M132.03 142.11l2.857 9.917" stroke-width="1.2" stroke="#000" stroke-miterlimit="10" fill="none"/><path d="M134.887 152.027l2.855 9.918" stroke-width="1.2" stroke="#f00" stroke-miterlimit="10" fill="none"/><path d="M129.7 142.78l-10.016-2.487" stroke-width="1.2" stroke="#000" stroke-miterlimit="10" fill="none"/><path d="M119.684 140.293l-10.016-2.484" stroke-width="1.2" stroke="#f00" stroke-miterlimit="10" fill="none"/><path d="M131.406 157.117h8v11h-8zm0 0" fill="#fff"/><use xlink:href="#a" x="131.406" y="165.78" fill="#f00"/><path d="M109.668 137.81l-7.16 7.428" stroke-width="1.2" stroke="#f00" stroke-miterlimit="10" fill="none"/><path d="M102.508 145.238l-7.164 7.43" stroke-width="1.2" stroke="#000" stroke-miterlimit="10" fill="none"/><path d="M105.668 132.31h8v11h-8zm0 0" fill="#fff"/><use xlink:href="#a" x="105.668" y="140.972" fill="#f00"/><path d="M95.344 152.668l-20.03-4.973M75.313 147.695l-5.708-19.832M70.074 147.055l-4.566-15.868M60.992 162.56l14.32-14.865M69.605 127.863l-20.03-4.972M49.574 122.89L35.25 137.75M51.637 127.746L40.18 139.633M35.25 137.75l5.71 19.836M40.96 157.586l20.032 4.973M44.133 153.367l16.023 3.98" stroke-width="1.2" stroke="#000" stroke-miterlimit="10" fill="none"/></g></svg>
